;Sliced by ideaMaker 4.2.1.5321, 2022-07-19 19:49:46 UTC+0800
;Dimension: 305.000 305.000 305.000 0.400
;Plate Shape: 0
;Origin Center: 0
;Extruder Offset #1: 25.000 0.000
;Filament Diameter #1: 1.750
;Filament Diameter #2: 1.750
;Filament Compensation #1: 94.00
;Filament Compensation #2: 100.00
;Filament Density #1: 1240.00
;Filament Density #2: 1240.00
;Bounding Box: 92.580 210.495 145.996 159.918 0.000 151.870
;Model Gap: 0.200
M221 T0 S94.00
M140 S60.00
M104 T0 S205.00
M109 T0 S205.00
T0
M190 S60.00
G21
G90
M82
M107
G28 X0 Y0
G28 Z0
G1 Z15.0 F300
G92 E0
G1 F140 E29
G1 X20 Y0 F140 E30
G92 E0
G1 F6000.0
M117 Printing...
M1001
;TOTAL_NUM: 1
;PRINTING_TIME: 0
;REMAINING_TIME: 12151
M106 S0
;LAYER:-2
;Z:0.500
;HEIGHT:0.500
;PRINTING: NON-OBJECT
;PRINTING_ID: -1
G0 F6000 X94.998 Y147.285
G0 F300 Z0.500
;TYPE:RAFT
;WIDTH:0.800
G1 F480 X95.579 Y146.950 E0.1115
G1 X96.077 Y146.746 E0.2010
G1 X96.708 Y146.570 E0.3100
G1 X97.297 Y146.492 E0.4088
G1 X98.390 Y146.481 E0.5906
G1 X99.104 Y146.417 E0.7098
G1 X99.566 Y146.396 E0.7867
G1 X205.546 Y146.399 E18.4112
G1 X205.917 Y146.420 E18.4730
G1 X206.452 Y146.501 E18.5630
G1 X206.946 Y146.636 E18.6482
G1 X207.425 Y146.827 E18.7339
G1 X208.025 Y147.160 E18.8480
G1 X208.431 Y147.461 E18.9321
G1 X208.813 Y147.817 E19.0189
G1 X209.158 Y148.222 E19.1074
G1 X209.362 Y148.515 E19.1668
G1 X209.685 Y149.111 E19.2795
G1 X209.867 Y149.585 E19.3640
G1 X209.967 Y149.947 E19.4264
G1 X210.059 Y150.471 E19.5149
G1 X210.092 Y150.959 E19.5962
G1 X210.095 Y153.936 E20.0913
G1 X210.049 Y154.610 E20.2036
G1 X209.958 Y155.101 E20.2867
G1 X209.798 Y155.615 E20.3762
G1 X209.592 Y156.085 E20.4616
G1 X209.421 Y156.392 E20.5200
G1 X209.126 Y156.819 E20.6063
G1 X208.674 Y157.323 E20.7189
G1 X208.276 Y157.662 E20.8058
G1 X207.842 Y157.954 E20.8928
G1 X207.380 Y158.196 E20.9796
G1 X206.900 Y158.380 E21.0650
G1 X206.382 Y158.513 E21.1540
G1 X205.876 Y158.584 E21.2390
G1 X205.435 Y158.604 E21.3124
G1 X102.486 Y158.604 E38.4329
G1 X102.006 Y158.639 E38.5129
G1 X101.514 Y158.749 E38.5967
G1 X100.336 Y159.250 E38.8096
G1 X99.686 Y159.429 E38.9217
G1 X99.328 Y159.485 E38.9820
G1 X98.832 Y159.518 E39.0647
G1 X97.527 Y159.516 E39.2817
G1 X97.139 Y159.494 E39.3463
G1 X96.642 Y159.417 E39.4299
G1 X95.961 Y159.217 E39.5480
G1 X95.498 Y159.013 E39.6321
G1 X95.045 Y158.749 E39.7193
G1 X94.764 Y158.547 E39.7769
G1 X94.367 Y158.200 E39.8646
G1 X94.013 Y157.809 E39.9523
G1 X93.718 Y157.401 E40.0360
G1 X93.388 Y156.793 E40.1510
G1 X93.256 Y156.463 E40.2101
G1 X93.113 Y155.974 E40.2949
G1 X93.004 Y155.295 E40.4092
G1 X92.985 Y154.863 E40.4811
G1 X92.980 Y151.201 E41.0901
G1 X93.005 Y150.675 E41.1777
G1 X93.069 Y150.220 E41.2541
G1 X93.188 Y149.754 E41.3341
G1 X93.433 Y149.118 E41.4475
G1 X93.599 Y148.798 E41.5074
G1 X93.889 Y148.354 E41.5956
G1 X94.218 Y147.958 E41.6812
G1 X94.592 Y147.598 E41.7675
G1 X94.998 Y147.285 E41.8528
G0 F6000 X93.324 Y150.413
G1 F480 X93.324 Y155.523 E42.7026
G0 F6000 X95.748 Y158.817
G1 F480 X95.748 Y147.183 E44.6373
G0 F6000 X98.172 Y146.763
G1 F480 X98.172 Y159.236 E46.7116
G0 F6000 X100.596 Y158.836
G1 F480 X100.596 Y146.677 E48.7337
G0 F6000 X103.020 Y146.677
G1 F480 X103.020 Y158.324 E50.6706
G0 F6000 X105.444 Y158.324
G1 F480 X105.444 Y146.677 E52.6075
G0 F6000 X107.868 Y146.677
G1 F480 X107.868 Y158.324 E54.5444
G0 F6000 X110.292 Y158.324
G1 F480 X110.292 Y146.677 E56.4813
G0 F6000 X112.716 Y146.677
G1 F480 X112.716 Y158.324 E58.4182
G0 F6000 X115.140 Y158.324
G1 F480 X115.140 Y146.677 E60.3551
G0 F6000 X117.564 Y146.677
G1 F480 X117.564 Y158.324 E62.2920
G0 F6000 X119.988 Y158.324
G1 F480 X119.988 Y146.677 E64.2289
G0 F6000 X122.412 Y146.677
G1 F480 X122.412 Y158.324 E66.1658
G0 F6000 X124.836 Y158.324
G1 F480 X124.836 Y146.677 E68.1027
G0 F6000 X127.260 Y146.677
G1 F480 X127.260 Y158.324 E70.0396
G0 F6000 X129.684 Y158.324
G1 F480 X129.684 Y146.677 E71.9765
G0 F6000 X132.108 Y146.677
G1 F480 X132.108 Y158.324 E73.9134
G0 F6000 X134.532 Y158.324
G1 F480 X134.532 Y146.677 E75.8503
G0 F6000 X136.956 Y146.678
G1 F480 X136.956 Y158.324 E77.7870
G0 F6000 X139.380 Y158.324
G1 F480 X139.380 Y146.678 E79.7238
G0 F6000 X141.804 Y146.678
G1 F480 X141.804 Y158.324 E81.6605
G0 F6000 X144.228 Y158.324
G1 F480 X144.228 Y146.678 E83.5973
G0 F6000 X146.652 Y146.678
G1 F480 X146.652 Y158.324 E85.5340
G0 F6000 X149.076 Y158.324
G1 F480 X149.076 Y146.678 E87.4707
G0 F6000 X151.500 Y146.678
G1 F480 X151.500 Y158.324 E89.4075
G0 F6000 X153.924 Y158.324
G1 F480 X153.924 Y146.678 E91.3442
G0 F6000 X156.348 Y146.678
G1 F480 X156.348 Y158.324 E93.2809
G0 F6000 X158.772 Y158.324
G1 F480 X158.772 Y146.678 E95.2177
G0 F6000 X161.196 Y146.678
G1 F480 X161.196 Y158.324 E97.1544
G0 F6000 X163.620 Y158.324
G1 F480 X163.620 Y146.678 E99.0912
G0 F6000 X166.044 Y146.678
G1 F480 X166.044 Y158.324 E101.0279
G0 F6000 X168.468 Y158.324
G1 F480 X168.468 Y146.678 E102.9646
G0 F6000 X170.892 Y146.679
G1 F480 X170.892 Y158.324 E104.9012
G0 F6000 X173.316 Y158.324
G1 F480 X173.316 Y146.679 E106.8378
G0 F6000 X175.740 Y146.679
G1 F480 X175.740 Y158.324 E108.7743
G0 F6000 X178.164 Y158.324
G1 F480 X178.164 Y146.679 E110.7109
G0 F6000 X180.588 Y146.679
G1 F480 X180.588 Y158.324 E112.6475
G0 F6000 X183.012 Y158.324
G1 F480 X183.012 Y146.679 E114.5841
G0 F6000 X185.436 Y146.679
G1 F480 X185.436 Y158.324 E116.5206
G0 F6000 X187.860 Y158.324
G1 F480 X187.860 Y146.679 E118.4572
G0 F6000 X190.284 Y146.679
G1 F480 X190.284 Y158.324 E120.3938
G0 F6000 X192.708 Y158.324
G1 F480 X192.708 Y146.679 E122.3303
G0 F6000 X195.132 Y146.679
G1 F480 X195.132 Y158.324 E124.2669
G0 F6000 X197.556 Y158.324
G1 F480 X197.556 Y146.679 E126.2035
G0 F6000 X199.980 Y146.679
G1 F480 X199.980 Y158.324 E128.1401
G0 F6000 X202.404 Y158.324
G1 F480 X202.404 Y146.679 E130.0766
G0 F6000 X204.828 Y146.679
G1 F480 X204.828 Y158.324 E132.0132
G0 F6000 X207.252 Y157.947
G1 F480 X207.252 Y147.060 E133.8237
G0 F6000 X209.676 Y149.950
G1 F480 X209.676 Y155.067 E134.6747
;PRINTING_TIME: 108
;REMAINING_TIME: 12043
M106 S255
;LAYER:-2
;Z:1.000
;HEIGHT:0.500
;PRINTING: NON-OBJECT
;PRINTING_ID: -1
G0 F300 Z1.000
G0 F6000 X209.958 Y155.101
;TYPE:RAFT
;WIDTH:0.800
G1 F960 X209.798 Y155.615 E134.7642
G1 X209.592 Y156.085 E134.8495
G1 X209.421 Y156.392 E134.9080
G1 X209.126 Y156.819 E134.9943
G1 X208.674 Y157.323 E135.1069
G1 X208.276 Y157.662 E135.1938
G1 X207.842 Y157.954 E135.2808
G1 X207.380 Y158.196 E135.3675
G1 X206.900 Y158.380 E135.4530
G1 X206.382 Y158.513 E135.5420
G1 X205.876 Y158.584 E135.6269
G1 X205.435 Y158.604 E135.7004
G1 X102.486 Y158.604 E152.8208
G1 X102.006 Y158.639 E152.9009
G1 X101.514 Y158.749 E152.9847
G1 X100.336 Y159.250 E153.1976
G1 X99.686 Y159.429 E153.3097
G1 X99.328 Y159.485 E153.3700
G1 X98.832 Y159.518 E153.4527
G1 X97.527 Y159.516 E153.6697
G1 X97.139 Y159.494 E153.7343
G1 X96.642 Y159.417 E153.8179
G1 X95.961 Y159.217 E153.9360
G1 X95.498 Y159.013 E154.0201
G1 X95.045 Y158.749 E154.1073
G1 X94.764 Y158.547 E154.1649
G1 X94.367 Y158.200 E154.2525
G1 X94.013 Y157.809 E154.3403
G1 X93.718 Y157.401 E154.4240
G1 X93.388 Y156.793 E154.5390
G1 X93.256 Y156.463 E154.5981
G1 X93.113 Y155.974 E154.6829
G1 X93.004 Y155.295 E154.7972
G1 X92.985 Y154.863 E154.8691
G1 X92.980 Y151.201 E155.4781
G1 X93.005 Y150.675 E155.5657
G1 X93.069 Y150.220 E155.6421
G1 X93.188 Y149.754 E155.7221
G1 X93.433 Y149.118 E155.8354
G1 X93.599 Y148.798 E155.8954
G1 X93.889 Y148.354 E155.9836
G1 X94.218 Y147.958 E156.0692
G1 X94.592 Y147.598 E156.1555
G1 X94.998 Y147.285 E156.2408
G1 X95.579 Y146.950 E156.3523
G1 X96.077 Y146.746 E156.4418
G1 X96.708 Y146.570 E156.5508
G1 X97.297 Y146.492 E156.6496
G1 X98.390 Y146.481 E156.8313
G1 X99.104 Y146.417 E156.9506
G1 X99.566 Y146.396 E157.0275
G1 X205.546 Y146.399 E174.6520
G1 X205.917 Y146.420 E174.7138
G1 X206.452 Y146.501 E174.8038
G1 X206.946 Y146.636 E174.8890
G1 X207.425 Y146.827 E174.9747
G1 X208.025 Y147.160 E175.0888
G1 X208.431 Y147.461 E175.1729
G1 X208.813 Y147.817 E175.2597
G1 X209.158 Y148.222 E175.3482
G1 X209.362 Y148.515 E175.4076
G1 X209.685 Y149.111 E175.5203
G1 X209.867 Y149.585 E175.6047
G1 X209.967 Y149.947 E175.6672
G1 X210.059 Y150.471 E175.7557
G1 X210.092 Y150.959 E175.8370
G1 X210.095 Y153.936 E176.3321
G1 X210.049 Y154.610 E176.4444
G1 X209.958 Y155.101 E176.5275
G0 F6000 X209.676 Y155.067
G1 F960 X209.676 Y149.950 E177.3784
G0 F6000 X207.252 Y147.060
G1 F960 X207.252 Y157.947 E179.1890
G0 F6000 X204.828 Y158.324
G1 F960 X204.828 Y146.679 E181.1255
G0 F6000 X202.404 Y146.679
G1 F960 X202.404 Y158.324 E183.0621
G0 F6000 X199.980 Y158.324
G1 F960 X199.980 Y146.679 E184.9987
G0 F6000 X197.556 Y146.679
G1 F960 X197.556 Y158.324 E186.9352
G0 F6000 X195.132 Y158.324
G1 F960 X195.132 Y146.679 E188.8718
G0 F6000 X192.708 Y146.679
G1 F960 X192.708 Y158.324 E190.8084
G0 F6000 X190.284 Y158.324
G1 F960 X190.284 Y146.679 E192.7450
G0 F6000 X187.860 Y146.679
G1 F960 X187.860 Y158.324 E194.6815
G0 F6000 X185.436 Y158.324
G1 F960 X185.436 Y146.679 E196.6181
G0 F6000 X183.012 Y146.679
G1 F960 X183.012 Y158.324 E198.5547
G0 F6000 X180.588 Y158.324
G1 F960 X180.588 Y146.679 E200.4912
G0 F6000 X178.164 Y146.679
G1 F960 X178.164 Y158.324 E202.4278
G0 F6000 X175.740 Y158.324
G1 F960 X175.740 Y146.679 E204.3644
G0 F6000 X173.316 Y146.679
G1 F960 X173.316 Y158.324 E206.3010
G0 F6000 X170.892 Y158.324
G1 F960 X170.892 Y146.679 E208.2375
G0 F6000 X168.468 Y146.678
G1 F960 X168.468 Y158.324 E210.1743
G0 F6000 X166.044 Y158.324
G1 F960 X166.044 Y146.678 E212.1110
G0 F6000 X163.620 Y146.678
G1 F960 X163.620 Y158.324 E214.0477
G0 F6000 X161.196 Y158.324
G1 F960 X161.196 Y146.678 E215.9845
G0 F6000 X158.772 Y146.678
G1 F960 X158.772 Y158.324 E217.9212
G0 F6000 X156.348 Y158.324
G1 F960 X156.348 Y146.678 E219.8579
G0 F6000 X153.924 Y146.678
G1 F960 X153.924 Y158.324 E221.7947
G0 F6000 X151.500 Y158.324
G1 F960 X151.500 Y146.678 E223.7314
G0 F6000 X149.076 Y146.678
G1 F960 X149.076 Y158.324 E225.6682
G0 F6000 X146.652 Y158.324
G1 F960 X146.652 Y146.678 E227.6049
G0 F6000 X144.228 Y146.678
G1 F960 X144.228 Y158.324 E229.5416
G0 F6000 X141.804 Y158.324
G1 F960 X141.804 Y146.678 E231.4784
G0 F6000 X139.380 Y146.678
G1 F960 X139.380 Y158.324 E233.4151
G0 F6000 X136.956 Y158.324
G1 F960 X136.956 Y146.678 E235.3519
G0 F6000 X134.532 Y146.677
G1 F960 X134.532 Y158.324 E237.2888
G0 F6000 X132.108 Y158.324
G1 F960 X132.108 Y146.677 E239.2257
G0 F6000 X129.684 Y146.677
G1 F960 X129.684 Y158.324 E241.1626
G0 F6000 X127.260 Y158.324
G1 F960 X127.260 Y146.677 E243.0995
G0 F6000 X124.836 Y146.677
G1 F960 X124.836 Y158.324 E245.0364
G0 F6000 X122.412 Y158.324
G1 F960 X122.412 Y146.677 E246.9733
G0 F6000 X119.988 Y146.677
G1 F960 X119.988 Y158.324 E248.9102
G0 F6000 X117.564 Y158.324
G1 F960 X117.564 Y146.677 E250.8471
G0 F6000 X115.140 Y146.677
G1 F960 X115.140 Y158.324 E252.7840
G0 F6000 X112.716 Y158.324
G1 F960 X112.716 Y146.677 E254.7209
G0 F6000 X110.292 Y146.677
G1 F960 X110.292 Y158.324 E256.6578
G0 F6000 X107.868 Y158.324
G1 F960 X107.868 Y146.677 E258.5947
G0 F6000 X105.444 Y146.677
G1 F960 X105.444 Y158.324 E260.5316
G0 F6000 X103.020 Y158.324
G1 F960 X103.020 Y146.677 E262.4685
G0 F6000 X100.596 Y146.677
G1 F960 X100.596 Y158.836 E264.4906
G0 F6000 X98.172 Y159.236
G1 F960 X98.172 Y146.763 E266.5648
G0 F6000 X95.748 Y147.183
G1 F960 X95.748 Y158.817 E268.4996
G0 F6000 X93.324 Y155.523
G1 F960 X93.324 Y150.413 E269.3494
;PRINTING_TIME: 163
;REMAINING_TIME: 11988
;LAYER:-1
;Z:1.380
;HEIGHT:0.380
;PRINTING: NON-OBJECT
;PRINTING_ID: -1
G0 F300 Z1.380
G0 F6000 X96.013 Y147.000
;TYPE:RAFT
;WIDTH:0.600
G1 F1800 X207.290 Y147.000 E279.8975
G0 F6000 X208.864 Y148.200
G1 F1800 X94.289 Y148.200 E290.7582
G0 F6000 X93.549 Y149.400
G1 F1800 X209.571 Y149.400 E301.7561
G0 F6000 X209.858 Y150.600
G1 F1800 X93.227 Y150.600 E312.8117
G0 F6000 X93.189 Y151.800
G1 F1800 X209.883 Y151.800 E323.8733
G0 F6000 X209.885 Y153.000
G1 F1800 X93.191 Y153.000 E334.9349
G0 F6000 X93.193 Y154.200
G1 F1800 X209.866 Y154.200 E345.9945
G0 F6000 X209.645 Y155.400
G1 F1800 X93.231 Y155.400 E357.0295
G0 F6000 X93.536 Y156.600
G1 F1800 X209.021 Y156.600 E367.9765
G0 F6000 X207.681 Y157.800
G1 F1800 X94.286 Y157.800 E378.7254
G0 F6000 X95.987 Y159.000
G1 F1800 X100.386 Y159.000 E379.1423
;PRINTING_TIME: 202
;REMAINING_TIME: 11948
;LAYER:-1
;Z:1.600
;HEIGHT:0.220
;PRINTING: NON-OBJECT
;PRINTING_ID: -1
G0 F300 Z1.600
G0 F6000 X95.119 Y158.629
;TYPE:RAFT
;WIDTH:0.400
G1 F3600 X93.139 Y155.200 E379.3930
G0 F6000 X93.122 Y154.229
G1 F3600 X95.897 Y159.034 E379.7442
G0 F6000 X96.563 Y159.247
G1 F3600 X93.121 Y153.285 E380.1799
G0 F6000 X93.120 Y152.340
G1 F3600 X97.169 Y159.354 E380.6925
G0 F6000 X97.725 Y159.375
G1 F3600 X93.118 Y151.396 E381.2757
G0 F6000 X93.164 Y150.534
G1 F3600 X98.269 Y159.376 E381.9219
G0 F6000 X98.814 Y159.377
G1 F3600 X93.308 Y149.841 E382.6188
G0 F6000 X93.522 Y149.270
G1 F3600 X99.337 Y159.341 E383.3549
G0 F6000 X99.825 Y159.244
G1 F3600 X93.780 Y148.773 E384.1202
G0 F6000 X94.076 Y148.346
G1 F3600 X100.294 Y159.115 E384.9072
G0 F6000 X100.730 Y158.929
G1 F3600 X94.404 Y147.971 E385.7081
G0 F6000 X94.759 Y147.643
G1 F3600 X101.167 Y158.742 E386.5193
G0 F6000 X101.618 Y158.581
G1 F3600 X95.141 Y147.363 E387.3392
G0 F6000 X95.549 Y147.127
G1 F3600 X102.109 Y158.490 E388.1696
G0 F6000 X102.637 Y158.463
G1 F3600 X95.981 Y146.935 E389.0122
G0 F6000 X96.441 Y146.789
G1 F3600 X103.181 Y158.463 E389.8654
G0 F6000 X103.725 Y158.463
G1 F3600 X96.923 Y146.682 E390.7264
G0 F6000 X97.437 Y146.630
G1 F3600 X104.269 Y158.463 E391.5912
G0 F6000 X104.813 Y158.463
G1 F3600 X97.978 Y146.625 E392.4564
G0 F6000 X98.513 Y146.611
G1 F3600 X105.356 Y158.463 E393.3226
G0 F6000 X105.900 Y158.463
G1 F3600 X99.030 Y146.564 E394.1923
G0 F6000 X99.558 Y146.536
G1 F3600 X106.444 Y158.463 E395.0640
G0 F6000 X106.988 Y158.463
G1 F3600 X100.102 Y146.536 E395.9357
G0 F6000 X100.646 Y146.536
G1 F3600 X107.532 Y158.463 E396.8074
G0 F6000 X108.076 Y158.463
G1 F3600 X101.189 Y146.536 E397.6791
G0 F6000 X101.733 Y146.536
G1 F3600 X108.620 Y158.463 E398.5508
G0 F6000 X109.164 Y158.464
G1 F3600 X102.277 Y146.536 E399.4226
G0 F6000 X102.821 Y146.536
G1 F3600 X109.708 Y158.464 E400.2944
G0 F6000 X110.251 Y158.463
G1 F3600 X103.365 Y146.536 E401.1661
G0 F6000 X103.909 Y146.536
G1 F3600 X110.795 Y158.463 E402.0377
G0 F6000 X111.339 Y158.463
G1 F3600 X104.453 Y146.536 E402.9094
G0 F6000 X104.996 Y146.535
G1 F3600 X111.883 Y158.463 E403.7812
G0 F6000 X112.427 Y158.463
G1 F3600 X105.540 Y146.535 E404.6530
G0 F6000 X106.084 Y146.535
G1 F3600 X112.971 Y158.463 E405.5248
G0 F6000 X113.514 Y158.463
G1 F3600 X106.628 Y146.535 E406.3965
G0 F6000 X107.172 Y146.535
G1 F3600 X114.058 Y158.463 E407.2683
G0 F6000 X114.602 Y158.463
G1 F3600 X107.716 Y146.535 E408.1400
G0 F6000 X108.260 Y146.536
G1 F3600 X115.146 Y158.463 E409.0117
G0 F6000 X115.690 Y158.463
G1 F3600 X108.804 Y146.536 E409.8834
G0 F6000 X109.347 Y146.536
G1 F3600 X116.234 Y158.463 E410.7551
G0 F6000 X116.778 Y158.463
G1 F3600 X109.891 Y146.536 E411.6268
G0 F6000 X110.435 Y146.536
G1 F3600 X117.322 Y158.464 E412.4986
G0 F6000 X117.865 Y158.463
G1 F3600 X110.979 Y146.536 E413.3703
G0 F6000 X111.523 Y146.536
G1 F3600 X118.409 Y158.463 E414.2420
G0 F6000 X118.953 Y158.463
G1 F3600 X112.067 Y146.536 E415.1137
G0 F6000 X112.611 Y146.536
G1 F3600 X119.497 Y158.463 E415.9854
G0 F6000 X120.041 Y158.463
G1 F3600 X113.155 Y146.536 E416.8571
G0 F6000 X113.699 Y146.536
G1 F3600 X120.585 Y158.463 E417.7288
G0 F6000 X121.129 Y158.463
G1 F3600 X114.243 Y146.536 E418.6004
G0 F6000 X114.786 Y146.536
G1 F3600 X121.672 Y158.463 E419.4721
G0 F6000 X122.216 Y158.463
G1 F3600 X115.330 Y146.536 E420.3438
G0 F6000 X115.874 Y146.536
G1 F3600 X122.760 Y158.463 E421.2155
G0 F6000 X123.304 Y158.463
G1 F3600 X116.418 Y146.536 E422.0872
G0 F6000 X116.961 Y146.536
G1 F3600 X123.848 Y158.463 E422.9589
G0 F6000 X124.392 Y158.463
G1 F3600 X117.505 Y146.536 E423.8306
G0 F6000 X118.049 Y146.536
G1 F3600 X124.936 Y158.464 E424.7024
G0 F6000 X125.479 Y158.463
G1 F3600 X118.593 Y146.536 E425.5741
G0 F6000 X119.137 Y146.536
G1 F3600 X126.023 Y158.463 E426.4458
