;Sliced by ideaMaker 4.2.1.5321, 2022-07-20 18:08:36 UTC+0800
;Dimension: 305.000 305.000 305.000 0.400
;Plate Shape: 0
;Origin Center: 0
;Extruder Offset #1: 25.000 0.000
;Filament Diameter #1: 1.750
;Filament Diameter #2: 1.750
;Filament Compensation #1: 94.00
;Filament Compensation #2: 100.00
;Filament Density #1: 1240.00
;Filament Density #2: 1240.00
;Bounding Box: 72.580 230.495 143.490 192.724 0.000 111.870
;Model Gap: 0.200
M221 T0 S94.00
M140 S60.00
M104 T0 S205.00
M109 T0 S205.00
T0
M190 S60.00
G21
G90
M82
M107
G28 X0 Y0
G28 Z0
G1 Z15.0 F300
G92 E0
G1 F140 E29
G1 X20 Y0 F140 E30
G92 E0
G1 F6000.0
M117 Printing...
M1001
;TOTAL_NUM: 3
;PRINTING_TIME: 0
;REMAINING_TIME: 18704
M106 S0
;LAYER:-2
;Z:0.500
;HEIGHT:0.500
;PRINTING: NON-OBJECT
;PRINTING_ID: -1
G0 F6000 X75.587 Y144.438
G0 F300 Z0.500
;TYPE:RAFT
;WIDTH:0.800
G1 F480 X75.888 Y144.307 E0.0546
G1 X76.651 Y144.076 E0.1872
G1 X77.174 Y143.995 E0.2752
G1 X77.646 Y143.970 E0.3538
G1 X78.439 Y143.970 E0.4857
G1 X79.562 Y143.890 E0.6729
G1 X225.546 Y143.893 E24.9501
G1 X225.917 Y143.914 E25.0119
G1 X226.452 Y143.995 E25.1019
G1 X226.947 Y144.130 E25.1872
G1 X227.578 Y144.394 E25.3010
G1 X228.023 Y144.653 E25.3866
G1 X228.322 Y144.867 E25.4478
G1 X228.813 Y145.311 E25.5578
G1 X229.158 Y145.716 E25.6463
G1 X229.362 Y146.009 E25.7057
G1 X229.685 Y146.605 E25.8184
G1 X229.867 Y147.079 E25.9029
G1 X229.967 Y147.441 E25.9653
G1 X230.060 Y147.965 E26.0538
G1 X230.094 Y148.529 E26.1478
G1 X230.095 Y156.455 E27.4659
G1 X230.070 Y156.940 E27.5466
G1 X229.957 Y157.611 E27.6598
G1 X229.798 Y158.122 E27.7488
G1 X229.589 Y158.596 E27.8350
G1 X229.415 Y158.908 E27.8944
G1 X229.029 Y159.448 E28.0048
G1 X228.661 Y159.841 E28.0943
G1 X228.394 Y160.076 E28.1534
G1 X227.974 Y160.380 E28.2397
G1 X227.518 Y160.636 E28.3266
G1 X227.032 Y160.840 E28.4143
G1 X226.553 Y160.981 E28.4973
G1 X225.869 Y161.090 E28.6125
G1 X225.434 Y161.110 E28.6849
G1 X201.669 Y161.110 E32.6371
G1 X201.189 Y161.145 E32.7171
G1 X200.704 Y161.253 E32.7997
G1 X200.241 Y161.431 E32.8822
G1 X199.808 Y161.673 E32.9647
G1 X199.414 Y161.976 E33.0474
G1 X199.069 Y162.335 E33.1302
G1 X198.782 Y162.738 E33.2124
G1 X198.554 Y163.179 E33.2950
G1 X198.394 Y163.648 E33.3774
G1 X198.303 Y164.137 E33.4601
G1 X198.285 Y164.634 E33.5428
G1 X198.340 Y165.127 E33.6253
G1 X198.464 Y165.607 E33.7078
G1 X198.658 Y166.063 E33.7902
G1 X199.242 Y167.038 E33.9792
G1 X199.869 Y168.276 E34.2100
G1 X200.078 Y168.761 E34.2978
G1 X200.513 Y169.923 E34.5041
G1 X200.668 Y170.411 E34.5893
G1 X200.997 Y171.708 E34.8118
G1 X201.104 Y172.248 E34.9034
G1 X201.275 Y173.484 E35.1109
G1 X201.323 Y174.047 E35.2048
G1 X201.359 Y175.325 E35.4174
G1 X201.342 Y175.926 E35.5174
G1 X201.232 Y177.232 E35.7354
G1 X201.158 Y177.752 E35.8227
G1 X200.907 Y179.025 E36.0385
G1 X200.779 Y179.530 E36.1251
G1 X200.384 Y180.788 E36.3444
G1 X200.207 Y181.254 E36.4273
G1 X199.723 Y182.363 E36.6285
G1 X199.426 Y182.954 E36.7385
G1 X198.792 Y184.051 E36.9493
G1 X198.481 Y184.521 E37.0430
G1 X197.768 Y185.495 E37.2437
G1 X197.406 Y185.938 E37.3389
G1 X196.543 Y186.877 E37.5509
G1 X196.141 Y187.270 E37.6444
G1 X195.156 Y188.129 E37.8618
G1 X194.709 Y188.474 E37.9557
G1 X193.711 Y189.167 E38.1577
G1 X193.267 Y189.444 E38.2448
G1 X192.129 Y190.064 E38.4603
G1 X191.567 Y190.330 E38.5637
G1 X190.444 Y190.787 E38.7653
G1 X189.887 Y190.979 E38.8633
G1 X188.626 Y191.335 E39.0812
G1 X188.180 Y191.435 E39.1572
G1 X186.884 Y191.654 E39.3758
G1 X186.368 Y191.712 E39.4621
G1 X185.104 Y191.784 E39.6727
G1 X184.424 Y191.784 E39.7858
G1 X183.189 Y191.709 E39.9915
G1 X182.668 Y191.653 E40.0787
G1 X181.447 Y191.452 E40.2845
G1 X180.857 Y191.322 E40.3849
G1 X179.593 Y190.961 E40.6035
G1 X179.082 Y190.784 E40.6935
G1 X177.896 Y190.299 E40.9066
G1 X177.411 Y190.067 E40.9960
G1 X176.285 Y189.455 E41.2091
G1 X175.816 Y189.163 E41.3010
G1 X174.803 Y188.460 E41.5060
G1 X174.389 Y188.140 E41.5930
G1 X173.363 Y187.243 E41.8197
G1 X172.976 Y186.862 E41.9100
G1 X172.098 Y185.903 E42.1262
G1 X171.610 Y185.282 E42.2576
G1 X171.301 Y184.921 E42.3366
G1 X170.929 Y184.595 E42.4188
G1 X170.511 Y184.325 E42.5016
G1 X170.059 Y184.120 E42.5841
G1 X169.581 Y183.982 E42.6669
G1 X169.089 Y183.917 E42.7494
G1 X168.593 Y183.922 E42.8319
G1 X168.103 Y184.001 E42.9144
G1 X167.630 Y184.149 E42.9969
G1 X167.183 Y184.365 E43.0794
G1 X166.772 Y184.643 E43.1619
G1 X166.408 Y184.978 E43.2442
G1 X166.148 Y185.291 E43.3119
G1 X165.621 Y186.009 E43.4600
G1 X165.231 Y186.487 E43.5626
G1 X164.380 Y187.414 E43.7718
G1 X164.005 Y187.783 E43.8593
G1 X162.979 Y188.680 E44.0860
G1 X162.555 Y189.008 E44.1751
G1 X161.484 Y189.748 E44.3916
G1 X161.072 Y190.001 E44.4720
G1 X159.951 Y190.610 E44.6842
G1 X159.422 Y190.860 E44.7815
G1 X158.279 Y191.324 E44.9866
G1 X157.775 Y191.501 E45.0755
G1 X156.454 Y191.876 E45.3038
G1 X155.956 Y191.987 E45.3887
G1 X154.655 Y192.202 E45.6080
G1 X154.113 Y192.259 E45.6986
G1 X152.939 Y192.324 E45.8941
G1 X152.259 Y192.324 E46.0072
G1 X150.897 Y192.239 E46.2342
G1 X150.405 Y192.180 E46.3166
G1 X149.255 Y191.988 E46.5105
G1 X148.747 Y191.875 E46.5970
G1 X147.505 Y191.525 E46.8116
G1 X147.006 Y191.356 E46.8992
G1 X145.778 Y190.859 E47.1195
G1 X145.314 Y190.642 E47.2047
G1 X144.107 Y189.987 E47.4331
G1 X143.646 Y189.701 E47.5233
G1 X142.582 Y188.959 E47.7390
G1 X142.165 Y188.631 E47.8272
G1 X141.244 Y187.826 E48.0307
G1 X140.824 Y187.416 E48.1283
G1 X139.971 Y186.487 E48.3380
G1 X139.587 Y186.016 E48.4391
G1 X138.829 Y184.978 E48.6528
G1 X138.577 Y184.593 E48.7293
G1 X137.934 Y183.479 E48.9432
G1 X137.689 Y182.999 E49.0329
G1 X137.159 Y181.792 E49.2521
G1 X136.987 Y181.335 E49.3333
G1 X136.589 Y180.070 E49.5538
G1 X136.460 Y179.561 E49.6412
G1 X136.211 Y178.298 E49.8552
G1 X136.136 Y177.770 E49.9439
G1 X136.022 Y176.416 E50.1699
G1 X136.009 Y175.941 E50.2489
G1 X136.039 Y174.746 E50.4477
G1 X136.074 Y174.274 E50.5264
G1 X136.259 Y172.837 E50.7674
G1 X136.355 Y172.323 E50.8543
G1 X136.698 Y170.959 E51.0882
G1 X136.858 Y170.453 E51.1765
G1 X137.310 Y169.250 E51.3902
G1 X137.529 Y168.755 E51.4802
G1 X138.134 Y167.564 E51.7024
G1 X138.369 Y167.157 E51.7805
G1 X138.893 Y166.354 E51.9400
G1 X139.125 Y165.931 E52.0202
G1 X139.300 Y165.467 E52.1027
G1 X139.404 Y164.982 E52.1852
G1 X139.437 Y164.486 E52.2678
G1 X139.397 Y163.992 E52.3502
G1 X139.286 Y163.508 E52.4328
G1 X139.106 Y163.045 E52.5154
G1 X138.860 Y162.614 E52.5980
G1 X138.554 Y162.223 E52.6805
G1 X138.193 Y161.881 E52.7632
G1 X137.788 Y161.595 E52.8457
G1 X137.345 Y161.371 E52.9282
G1 X136.874 Y161.214 E53.0108
G1 X136.390 Y161.128 E53.0926
G1 X136.046 Y161.110 E53.1498
G1 X79.574 Y161.110 E62.5412
G1 X78.421 Y161.030 E62.7334
G1 X77.675 Y161.030 E62.8574
G1 X77.177 Y161.005 E62.9404
G1 X76.739 Y160.944 E63.0139
G1 X76.286 Y160.831 E63.0915
G1 X75.640 Y160.587 E63.2064
G1 X75.186 Y160.342 E63.2922
G1 X74.894 Y160.149 E63.3504
G1 X74.369 Y159.706 E63.4646
G1 X74.017 Y159.319 E63.5516
G1 X73.805 Y159.038 E63.6102
G1 X73.458 Y158.444 E63.7246
G1 X73.258 Y157.974 E63.8095
G1 X73.143 Y157.605 E63.8738
G1 X73.041 Y157.109 E63.9580
G1 X72.980 Y156.304 E64.0922
G1 X72.980 Y148.665 E65.3626
G1 X73.006 Y148.157 E65.4472
G1 X73.060 Y147.769 E65.5124
G1 X73.239 Y147.092 E65.6288
G1 X73.431 Y146.615 E65.7143
G1 X73.601 Y146.289 E65.7755
G1 X73.887 Y145.851 E65.8625
G1 X74.316 Y145.347 E65.9725
G1 X74.702 Y144.998 E66.0591
G1 X75.127 Y144.694 E66.1460
G1 X75.587 Y144.438 E66.2335
G0 F6000 X73.932 Y146.294
G1 F480 X73.932 Y158.701 E68.2968
G0 F6000 X76.356 Y160.558
G1 F480 X76.356 Y144.458 E70.9742
G0 F6000 X78.780 Y144.226
G1 F480 X78.780 Y160.774 E73.7262
G0 F6000 X81.204 Y160.830
G1 F480 X81.204 Y144.171 E76.4966
G0 F6000 X83.628 Y144.171
G1 F480 X83.628 Y160.830 E79.2670
G0 F6000 X86.052 Y160.830
G1 F480 X86.052 Y144.171 E82.0374
G0 F6000 X88.476 Y144.171
G1 F480 X88.476 Y160.830 E84.8078
G0 F6000 X90.900 Y160.830
G1 F480 X90.900 Y144.171 E87.5782
G0 F6000 X93.324 Y144.171
G1 F480 X93.324 Y160.830 E90.3486
G0 F6000 X95.748 Y160.830
G1 F480 X95.748 Y144.171 E93.1190
G0 F6000 X98.172 Y144.171
G1 F480 X98.172 Y160.830 E95.8894
G0 F6000 X100.596 Y160.830
G1 F480 X100.596 Y144.171 E98.6598
G0 F6000 X103.020 Y144.171
G1 F480 X103.020 Y160.830 E101.4302
G0 F6000 X105.444 Y160.830
G1 F480 X105.444 Y144.171 E104.2006
G0 F6000 X107.868 Y144.171
G1 F480 X107.868 Y160.830 E106.9710
G0 F6000 X110.292 Y160.830
G1 F480 X110.292 Y144.171 E109.7414
G0 F6000 X112.716 Y144.171
G1 F480 X112.716 Y160.830 E112.5118
G0 F6000 X115.140 Y160.830
G1 F480 X115.140 Y144.171 E115.2822
G0 F6000 X117.564 Y144.171
G1 F480 X117.564 Y160.830 E118.0526
G0 F6000 X119.988 Y160.830
G1 F480 X119.988 Y144.171 E120.8230
G0 F6000 X122.412 Y144.171
G1 F480 X122.412 Y160.830 E123.5934
G0 F6000 X124.836 Y160.830
G1 F480 X124.836 Y144.171 E126.3638
G0 F6000 X127.260 Y144.171
G1 F480 X127.260 Y160.830 E129.1342
G0 F6000 X129.684 Y160.830
G1 F480 X129.684 Y144.172 E131.9045
G0 F6000 X132.108 Y144.172
G1 F480 X132.108 Y160.830 E134.6747
G0 F6000 X134.532 Y160.830
G1 F480 X134.532 Y144.172 E137.4450
G0 F6000 X136.956 Y144.172
G1 F480 X136.956 Y160.946 E140.2345
G0 F6000 X139.380 Y162.977
G1 F480 X139.380 Y144.172 E143.3618
G0 F6000 X141.804 Y144.172
G1 F480 X141.804 Y187.943 E150.6409
G0 F6000 X144.228 Y189.732
G1 F480 X144.228 Y144.172 E158.2176
G0 F6000 X146.652 Y144.172
G1 F480 X146.652 Y190.910 E165.9901
G0 F6000 X149.076 Y191.661
G1 F480 X149.076 Y144.172 E173.8876
G0 F6000 X151.500 Y144.172
G1 F480 X151.500 Y191.996 E181.8407
G0 F6000 X153.924 Y191.990
G1 F480 X153.924 Y144.172 E189.7929
G0 F6000 X156.348 Y144.172
G1 F480 X156.348 Y191.613 E197.6824
G0 F6000 X158.772 Y190.822
G1 F480 X158.772 Y144.172 E205.4403
G0 F6000 X161.196 Y144.172
G1 F480 X161.196 Y189.597 E212.9945
G0 F6000 X163.620 Y187.749
G1 F480 X163.620 Y144.172 E220.2414
G0 F6000 X166.044 Y144.172
G1 F480 X166.044 Y184.979 E227.0276
G0 F6000 X168.468 Y183.658
G1 F480 X168.468 Y144.172 E233.5942
G0 F6000 X170.892 Y144.172
G1 F480 X170.892 Y184.237 E240.2570
G0 F6000 X173.316 Y186.803
G1 F480 X173.316 Y144.172 E247.3466
G0 F6000 X175.740 Y144.172
G1 F480 X175.740 Y188.769 E254.7631
G0 F6000 X178.164 Y190.106
G1 F480 X178.164 Y144.173 E262.4018
G0 F6000 X180.588 Y144.173
G1 F480 X180.588 Y190.953 E270.1813
G0 F6000 X183.012 Y191.408
G1 F480 X183.012 Y144.173 E278.0365
G0 F6000 X185.436 Y144.173
G1 F480 X185.436 Y191.485 E285.9046
G0 F6000 X187.860 Y191.206
G1 F480 X187.860 Y144.173 E293.7262
G0 F6000 X190.284 Y144.173
G1 F480 X190.284 Y190.546 E301.4380
G0 F6000 X192.708 Y189.431
G1 F480 X192.708 Y144.173 E308.9645
G0 F6000 X195.132 Y144.173
G1 F480 X195.132 Y187.779 E316.2162
G0 F6000 X197.556 Y185.312
G1 F480 X197.556 Y144.173 E323.0576
G0 F6000 X199.980 Y144.173
G1 F480 X199.980 Y161.257 E325.8987
G0 F6000 X202.404 Y160.830
G1 F480 X202.404 Y144.173 E328.6688
G0 F6000 X204.828 Y144.173
G1 F480 X204.828 Y160.830 E331.4388
G0 F6000 X207.252 Y160.830
G1 F480 X207.252 Y144.173 E334.2089
G0 F6000 X209.676 Y144.173
G1 F480 X209.676 Y160.830 E336.9790
G0 F6000 X212.100 Y160.830
G1 F480 X212.100 Y144.173 E339.7491
G0 F6000 X214.524 Y144.173
G1 F480 X214.524 Y160.830 E342.5191
G0 F6000 X216.948 Y160.830
G1 F480 X216.948 Y144.173 E345.2892
G0 F6000 X219.372 Y144.173
G1 F480 X219.372 Y160.830 E348.0593
G0 F6000 X221.796 Y160.830
G1 F480 X221.796 Y144.173 E350.8293
G0 F6000 X224.220 Y144.173
G1 F480 X224.220 Y160.830 E353.5994
G0 F6000 X226.644 Y160.662
G1 F480 X226.644 Y144.338 E356.3141
G0 F6000 X229.068 Y146.078
G1 F480 X229.068 Y158.913 E358.4486
G0 F6000 X199.980 Y169.300
G1 F480 X199.980 Y181.063 E360.4048
G0 F6000 X139.380 Y185.258
G1 F480 X139.380 Y166.048 E363.5994
G0 F6000 X136.956 Y171.083
G1 F480 X136.956 Y180.303 E365.1327
;PRINTING_TIME: 283
;REMAINING_TIME: 18420
M106 S255
;LAYER:-2
;Z:1.000
;HEIGHT:0.500
;PRINTING: NON-OBJECT
;PRINTING_ID: -1
G0 F300 Z1.000
G0 F6000 X136.589 Y180.070
;TYPE:RAFT
;WIDTH:0.800
G1 F960 X136.460 Y179.561 E365.2200
G1 X136.211 Y178.298 E365.4341
G1 X136.136 Y177.770 E365.5228
G1 X136.022 Y176.416 E365.7488
G1 X136.009 Y175.941 E365.8278
G1 X136.039 Y174.746 E366.0266
G1 X136.074 Y174.274 E366.1053
G1 X136.259 Y172.837 E366.3462
G1 X136.355 Y172.323 E366.4332
G1 X136.698 Y170.959 E366.6671
G1 X136.858 Y170.453 E366.7553
G1 X137.310 Y169.250 E366.9690
G1 X137.529 Y168.755 E367.0591
G1 X138.134 Y167.564 E367.2812
G1 X138.369 Y167.157 E367.3594
G1 X138.893 Y166.354 E367.5188
G1 X139.125 Y165.931 E367.5991
G1 X139.300 Y165.467 E367.6815
G1 X139.404 Y164.982 E367.7640
G1 X139.437 Y164.486 E367.8467
G1 X139.397 Y163.992 E367.9291
G1 X139.286 Y163.508 E368.0117
G1 X139.106 Y163.045 E368.0943
G1 X138.860 Y162.614 E368.1768
G1 X138.554 Y162.223 E368.2594
G1 X138.193 Y161.881 E368.3421
G1 X137.788 Y161.595 E368.4245
G1 X137.345 Y161.371 E368.5071
G1 X136.874 Y161.214 E368.5897
G1 X136.390 Y161.128 E368.6714
G1 X136.046 Y161.110 E368.7287
G1 X79.574 Y161.110 E378.1200
G1 X78.421 Y161.030 E378.3122
G1 X77.675 Y161.030 E378.4363
G1 X77.177 Y161.005 E378.5192
G1 X76.739 Y160.944 E378.5928
G1 X76.286 Y160.831 E378.6704
G1 X75.640 Y160.587 E378.7852
G1 X75.186 Y160.342 E378.8710
G1 X74.894 Y160.149 E378.9292
G1 X74.369 Y159.706 E379.0435
G1 X74.017 Y159.319 E379.1305
G1 X73.805 Y159.038 E379.1890
G1 X73.458 Y158.444 E379.3034
G1 X73.258 Y157.974 E379.3884
G1 X73.143 Y157.605 E379.4526
G1 X73.041 Y157.109 E379.5369
G1 X72.980 Y156.304 E379.6711
G1 X72.980 Y148.665 E380.9415
G1 X73.006 Y148.157 E381.0261
G1 X73.060 Y147.769 E381.0912
G1 X73.239 Y147.092 E381.2077
G1 X73.431 Y146.615 E381.2932
G1 X73.601 Y146.289 E381.3543
G1 X73.887 Y145.851 E381.4413
G1 X74.316 Y145.347 E381.5514
G1 X74.702 Y144.998 E381.6379
G1 X75.127 Y144.694 E381.7248
G1 X75.587 Y144.438 E381.8124
G1 X75.888 Y144.307 E381.8670
G1 X76.651 Y144.076 E381.9995
G1 X77.174 Y143.995 E382.0875
G1 X77.646 Y143.970 E382.1662
G1 X78.439 Y143.970 E382.2980
G1 X79.562 Y143.890 E382.4853
G1 X225.546 Y143.893 E406.7625
G1 X225.917 Y143.914 E406.8243
G1 X226.452 Y143.995 E406.9143
G1 X226.947 Y144.130 E406.9996
G1 X227.578 Y144.394 E407.1134
G1 X228.023 Y144.653 E407.1990
G1 X228.322 Y144.867 E407.2601
G1 X228.813 Y145.311 E407.3702
G1 X229.158 Y145.716 E407.4587
G1 X229.362 Y146.009 E407.5181
G1 X229.685 Y146.605 E407.6308
G1 X229.867 Y147.079 E407.7152
G1 X229.967 Y147.441 E407.7777
G1 X230.060 Y147.965 E407.8662
G1 X230.094 Y148.529 E407.9602
G1 X230.095 Y156.455 E409.2783
G1 X230.070 Y156.940 E409.3590
G1 X229.957 Y157.611 E409.4722
G1 X229.798 Y158.122 E409.5612
G1 X229.589 Y158.596 E409.6473
G1 X229.415 Y158.908 E409.7067
G1 X229.029 Y159.448 E409.8171
G1 X228.661 Y159.841 E409.9067
G1 X228.394 Y160.076 E409.9658
G1 X227.974 Y160.380 E410.0520
G1 X227.518 Y160.636 E410.1390
G1 X227.032 Y160.840 E410.2266
G1 X226.553 Y160.981 E410.3097
G1 X225.869 Y161.090 E410.4249
G1 X225.434 Y161.110 E410.4973
G1 X201.669 Y161.110 E414.4494
G1 X201.189 Y161.145 E414.5295
G1 X200.704 Y161.253 E414.6121
G1 X200.241 Y161.431 E414.6946
G1 X199.808 Y161.673 E414.7771
G1 X199.414 Y161.976 E414.8597
G1 X199.069 Y162.335 E414.9425
G1 X198.782 Y162.738 E415.0248
G1 X198.554 Y163.179 E415.1074
G1 X198.394 Y163.648 E415.1898
G1 X198.303 Y164.137 E415.2725
G1 X198.285 Y164.634 E415.3552
G1 X198.340 Y165.127 E415.4377
G1 X198.464 Y165.607 E415.5201
G1 X198.658 Y166.063 E415.6026
G1 X199.242 Y167.038 E415.7916
G1 X199.869 Y168.276 E416.0223
G1 X200.078 Y168.761 E416.1102
G1 X200.513 Y169.923 E416.3165
G1 X200.668 Y170.411 E416.4017
G1 X200.997 Y171.708 E416.6242
G1 X201.104 Y172.248 E416.7157
G1 X201.275 Y173.484 E416.9232
G1 X201.323 Y174.047 E417.0172
G1 X201.359 Y175.325 E417.2298
G1 X201.342 Y175.926 E417.3298
G1 X201.232 Y177.232 E417.5478
G1 X201.158 Y177.752 E417.6351
G1 X200.907 Y179.025 E417.8509
G1 X200.779 Y179.530 E417.9375
G1 X200.384 Y180.788 E418.1568
G1 X200.207 Y181.254 E418.2397
G1 X199.723 Y182.363 E418.4409
G1 X199.426 Y182.954 E418.5509
G1 X198.792 Y184.051 E418.7616
G1 X198.481 Y184.521 E418.8553
G1 X197.768 Y185.495 E419.0561
G1 X197.406 Y185.938 E419.1512
G1 X196.543 Y186.877 E419.3633
G1 X196.141 Y187.270 E419.4568
G1 X195.156 Y188.129 E419.6742
